assets/Baby angel/Default/Flat/baby_angel_flat_default.svg

<svg width="32" height="32" viewBox="0 0 32 32" fill="none" xmlns="http://www.w3.org/2000/svg">
<path d="M15.91 3.5C18.07 3.5 20.17 3.87 21.66 4.51C22.91 5.05 23.38 5.63 23.38 5.87C23.38 6.11 22.91 6.69 21.66 7.23C20.17 7.87 18.08 8.24 15.91 8.24C13.74 8.24 11.65 7.88 10.17 7.24C8.90995 6.7 8.44995 6.11 8.44995 5.87C8.44995 5.63 8.91995 5.05 10.17 4.51C11.65 3.87 13.75 3.5 15.91 3.5ZM15.91 2C10.96 2 6.94995 3.73 6.94995 5.87C6.94995 8.01 10.96 9.74 15.92 9.74C20.88 9.74 24.8899 8.01 24.8899 5.87C24.8899 3.73 20.87 2 15.91 2Z" fill="#26C9FC"/>
<path d="M9.17006 28H5.17006C4.28006 28 3.56006 27.2871 3.56006 26.4158C3.56006 26.1881 3.75006 26 3.98006 26H9.17006V28Z" fill="#F4F4F4"/>
<path d="M22.72 28H26.72C27.61 28 28.33 27.2871 28.33 26.4158C28.33 26.1881 28.14 26 27.91 26H22.72V28Z" fill="#F4F4F4"/>
<path d="M9.16991 30H6.75991C5.87991 30 5.15991 29.2871 5.15991 28.4158C5.15991 28.1881 5.34991 28 5.57991 28H9.16991V30Z" fill="white"/>
<path d="M22.72 30H25.13C26.01 30 26.73 29.2871 26.73 28.4158C26.73 28.1881 26.54 28 26.31 28H22.72V30Z" fill="white"/>
<path d="M9.97 24H2.42C2.19 24 2 24.18 2 24.42C2 25.3 2.71 26.02 3.6 26.02H7.63C7.87 26.02 8.07 26.21 8.07 26.46V29.06C8.07 29.61 8.52 30.06 9.07 30.06H9.97C11.64 30.06 13 28.7 13 27.03C13 25.36 11.64 24 9.97 24Z" fill="#E6E6E6"/>
<path d="M21.9199 24H29.4699C29.6999 24 29.8899 24.18 29.8799 24.42C29.8799 25.3 29.1699 26.02 28.2799 26.02H24.2599C24.0199 26.02 23.8199 26.21 23.8199 26.46V29.06C23.8199 29.61 23.3699 30.06 22.8199 30.06H21.9199C20.2499 30.06 18.8899 28.7 18.8899 27.03C18.8899 25.36 20.2499 24 21.9199 24Z" fill="#E6E6E6"/>
<path d="M10.25 20.51C10.25 22.1669 8.90685 23.51 7.25 23.51C5.59315 23.51 4.25 22.1669 4.25 20.51C4.25 18.8532 5.59315 17.51 7.25 17.51C8.90685 17.51 10.25 18.8532 10.25 20.51Z" fill="#FDBB11"/>
<path d="M27.75 20.51C27.75 22.1669 26.4069 23.51 24.75 23.51C23.0931 23.51 21.75 22.1669 21.75 20.51C21.75 18.8532 23.0931 17.51 24.75 17.51C26.4069 17.51 27.75 18.8532 27.75 20.51Z" fill="#FDBB11"/>
<path d="M22.5001 7.51999C21.0901 6.43999 19.4001 5.85999 17.6701 5.85999H14.2101C12.4801 5.85999 10.7901 6.43999 9.38009 7.51999C6.98009 9.35999 5.68009 12.44 5.97009 15.59L6.78009 23.12C7.05009 26.03 8.95009 28.48 11.5801 29.32C14.4201 30.22 17.4501 30.22 20.3001 29.32C22.9301 28.48 24.8201 26.03 25.1001 23.12L25.9101 15.59C26.2101 12.44 24.9101 9.35999 22.5001 7.51999Z" fill="#FFC83D"/>
<path d="M10.2618 16.5788C10.7516 16.4096 11.4455 16.2785 12.3577 16.3623C12.6131 16.3858 12.8391 16.1978 12.8625 15.9424C12.886 15.6871 12.698 15.4611 12.4426 15.4376C11.3949 15.3414 10.5688 15.4903 9.95858 15.7011C9.7162 15.7848 9.5876 16.0492 9.67133 16.2916C9.75505 16.5339 10.0194 16.6625 10.2618 16.5788Z" fill="#D37034"/>
<path d="M21.9318 15.7011C21.3216 15.4903 20.4955 15.3414 19.4477 15.4376C19.1924 15.4611 19.0044 15.6871 19.0279 15.9424C19.0513 16.1978 19.2773 16.3858 19.5327 16.3623C20.4449 16.2785 21.1388 16.4096 21.6286 16.5788C21.871 16.6625 22.1353 16.5339 22.2191 16.2916C22.3028 16.0492 22.1742 15.7848 21.9318 15.7011Z" fill="#D37034"/>
<path d="M15.9501 24.3899C14.9201 24.3899 13.9601 24.1399 13.1401 23.7199C12.8601 23.5699 12.5701 23.8899 12.7401 24.1499C13.4201 25.1999 14.6001 25.8999 15.9501 25.8999C17.3001 25.8999 18.4801 25.1999 19.1601 24.1499C19.3301 23.8899 19.0401 23.5699 18.7601 23.7199C17.9401 24.1399 16.9801 24.3899 15.9501 24.3899Z" fill="#990839"/>
<path d="M15.8901 23.0699C16.3301 23.0699 16.7101 22.8499 16.9401 22.5199C17.1501 22.2199 16.9301 21.7999 16.5601 21.7999H15.2201C14.8501 21.7999 14.6301 22.2099 14.8401 22.5199C15.0701 22.8499 15.4601 23.0699 15.8901 23.0699Z" fill="#ED9200"/>
<path d="M8.15 20.41C8.49 19.02 9.75 17.99 11.25 17.99C12.81 17.99 14.1 19.1 14.39 20.57C14.46 20.89 14.2 21.19 13.87 21.19H8.77C8.36 21.19 8.05 20.81 8.15 20.41Z" fill="white"/>
<path d="M23.6301 20.41C23.2901 19.02 22.0301 17.99 20.5301 17.99C18.9801 17.99 17.6801 19.1 17.3901 20.57C17.3201 20.89 17.5801 21.19 17.9101 21.19H23.0101C23.4201 21.19 23.7301 20.81 23.6301 20.41Z" fill="white"/>
<path d="M9.67017 20.65C9.67017 19.52 10.5902 18.6 11.7202 18.6C12.8502 18.6 13.7702 19.51 13.7702 20.65C13.7702 20.84 13.7402 21.02 13.6902 21.19H9.75017C9.70017 21.02 9.67017 20.84 9.67017 20.65Z" fill="#7D4533"/>
<path d="M22.11 20.65C22.11 19.52 21.19 18.6 20.06 18.6C18.93 18.6 18.01 19.51 18.01 20.65C18.01 20.84 18.04 21.02 18.09 21.19H22.03C22.08 21.02 22.11 20.84 22.11 20.65Z" fill="#7D4533"/>
<path d="M11.72 19.47C12.37 19.47 12.89 19.99 12.89 20.64C12.89 20.84 12.84 21.02 12.75 21.18H10.68C10.6 21.02 10.55 20.84 10.55 20.64C10.55 19.99 11.07 19.47 11.72 19.47Z" fill="black"/>
<path d="M20.0601 19.47C19.4101 19.47 18.8901 19.99 18.8901 20.64C18.8901 20.84 18.9401 21.02 19.0301 21.18H21.1001C21.1801 21.02 21.2301 20.84 21.2301 20.64C21.2301 19.99 20.7101 19.47 20.0601 19.47Z" fill="black"/>
<path d="M11.2552 19.84C11.2552 20.0388 11.094 20.2 10.8952 20.2C10.6963 20.2 10.5352 20.0388 10.5352 19.84C10.5352 19.6412 10.6963 19.48 10.8952 19.48C11.094 19.48 11.2552 19.6412 11.2552 19.84Z" fill="white"/>
<path d="M19.7901 19.84C19.7901 20.0388 19.6289 20.2 19.4301 20.2C19.2312 20.2 19.0701 20.0388 19.0701 19.84C19.0701 19.6412 19.2312 19.48 19.4301 19.48C19.6289 19.48 19.7901 19.6412 19.7901 19.84Z" fill="white"/>
<path d="M16.0001 3.99998C14.4801 3.97998 13.1601 4.81998 12.4801 6.05998C13.0501 5.92998 13.6401 5.85998 14.2201 5.85998H14.3601C16.0401 5.85998 17.4601 7.22998 17.4401 8.90998C17.4301 9.66998 17.1501 10.36 16.6801 10.89C16.6001 10.98 16.5501 11.1 16.5501 11.23C16.5501 11.57 16.8901 11.82 17.2101 11.71C18.7701 11.18 19.9001 9.69998 19.9001 7.95998C19.9101 5.80998 18.1501 4.02998 16.0001 3.99998Z" fill="#F1A11E"/>
</svg>

<svg xmlns="http://www.w3.org/2000/svg" width="32" height="32" fill="none"><path fill="#26C9FC" d="M15.91 3.5c2.16 0 4.26.37 5.75 1.01 1.25.54 1.72 1.12 1.72 1.36s-.47.82-1.72 1.36c-1.49.64-3.58 1.01-5.75 1.01s-4.26-.36-5.74-1C8.91 6.7 8.45 6.11 8.45 5.87c0-.24.47-.82 1.72-1.36 1.48-.64 3.58-1.01 5.74-1.01Zm0-1.5c-4.95 0-8.96 1.73-8.96 3.87s4.01 3.87 8.97 3.87c4.96 0 8.97-1.73 8.97-3.87S20.87 2 15.91 2Z"/><path fill="#F4F4F4" d="M9.17 28h-4c-.89 0-1.61-.713-1.61-1.584A.42.42 0 0 1 3.98 26h5.19v2ZM22.72 28h4c.89 0 1.61-.713 1.61-1.584a.42.42 0 0 0-.42-.416h-5.19v2Z"/><path fill="#fff" d="M9.17 30H6.76c-.88 0-1.6-.713-1.6-1.584A.42.42 0 0 1 5.58 28h3.59v2ZM22.72 30h2.41c.88 0 1.6-.713 1.6-1.584a.42.42 0 0 0-.42-.416h-3.59v2Z"/><path fill="#E6E6E6" d="M9.97 24H2.42c-.23 0-.42.18-.42.42 0 .88.71 1.6 1.6 1.6h4.03c.24 0 .44.19.44.44v2.6c0 .55.45 1 1 1h.9c1.67 0 3.03-1.36 3.03-3.03C13 25.36 11.64 24 9.97 24ZM21.92 24h7.55c.23 0 .42.18.41.42 0 .88-.71 1.6-1.6 1.6h-4.02c-.24 0-.44.19-.44.44v2.6c0 .55-.45 1-1 1h-.9c-1.67 0-3.03-1.36-3.03-3.03 0-1.67 1.36-3.03 3.03-3.03Z"/><path fill="#FDBB11" d="M10.25 20.51a3 3 0 1 1-6 0 3 3 0 0 1 6 0ZM27.75 20.51a3 3 0 1 1-6 0 3 3 0 0 1 6 0Z"/><path fill="#FFC83D" d="M22.5 7.52a7.937 7.937 0 0 0-4.83-1.66h-3.46c-1.73 0-3.42.58-4.83 1.66-2.4 1.84-3.7 4.92-3.41 8.07l.81 7.53c.27 2.91 2.17 5.36 4.8 6.2 2.84.9 5.87.9 8.72 0 2.63-.84 4.52-3.29 4.8-6.2l.81-7.53c.3-3.15-1-6.23-3.41-8.07Z"/><path fill="#D37034" d="M10.262 16.579c.49-.17 1.183-.3 2.096-.217a.464.464 0 1 0 .085-.924c-1.048-.097-1.874.052-2.484.263a.464.464 0 1 0 .303.878ZM21.932 15.701c-.61-.21-1.436-.36-2.484-.263a.464.464 0 0 0 .085.924c.912-.083 1.606.048 2.096.217a.464.464 0 0 0 .303-.878Z"/><path fill="#990839" d="M15.95 24.39c-1.03 0-1.99-.25-2.81-.67-.28-.15-.57.17-.4.43a3.818 3.818 0 0 0 6.42 0c.17-.26-.12-.58-.4-.43-.82.42-1.78.67-2.81.67Z"/><path fill="#ED9200" d="M15.89 23.07c.44 0 .82-.22 1.05-.55a.46.46 0 0 0-.38-.72h-1.34a.46.46 0 0 0-.38.72c.23.33.62.55 1.05.55Z"/><path fill="#fff" d="M8.15 20.41a3.199 3.199 0 0 1 6.24.16c.07.32-.19.62-.52.62h-5.1c-.41 0-.72-.38-.62-.78ZM23.63 20.41a3.188 3.188 0 0 0-3.1-2.42c-1.55 0-2.85 1.11-3.14 2.58-.07.32.19.62.52.62h5.1c.41 0 .72-.38.62-.78Z"/><path fill="#7D4533" d="M9.67 20.65c0-1.13.92-2.05 2.05-2.05s2.05.91 2.05 2.05c0 .19-.03.37-.08.54H9.75c-.05-.17-.08-.35-.08-.54ZM22.11 20.65c0-1.13-.92-2.05-2.05-2.05s-2.05.91-2.05 2.05c0 .19.03.37.08.54h3.94c.05-.17.08-.35.08-.54Z"/><path fill="#000" d="M11.72 19.47c.65 0 1.17.52 1.17 1.17 0 .2-.05.38-.14.54h-2.07c-.08-.16-.13-.34-.13-.54 0-.65.52-1.17 1.17-1.17ZM20.06 19.47c-.65 0-1.17.52-1.17 1.17 0 .2.05.38.14.54h2.07c.08-.16.13-.34.13-.54 0-.65-.52-1.17-1.17-1.17Z"/><path fill="#fff" d="M11.255 19.84a.36.36 0 1 1-.72 0 .36.36 0 0 1 .72 0ZM19.79 19.84a.36.36 0 1 1-.72 0 .36.36 0 0 1 .72 0Z"/><path fill="#F1A11E" d="M16 4a3.95 3.95 0 0 0-3.52 2.06c.57-.13 1.16-.2 1.74-.2h.14c1.68 0 3.1 1.37 3.08 3.05-.01.76-.29 1.45-.76 1.98a.506.506 0 0 0 .53.82 3.968 3.968 0 0 0 2.69-3.75C19.91 5.81 18.15 4.03 16 4Z"/></svg>
